frontend/public/icons/bright-star.svg

<svg width="24" height="24" viewBox="0 0 24 24" fill="none" xmlns="http://www.w3.org/2000/svg">
<g clip-path="url(#clip0_851_20375)">
<path d="M9.95242 9.62272L11.5109 6.31816C11.711 5.89395 12.289 5.89395 12.4891 6.31816L14.0476 9.62272L17.5329 10.1559C17.9801 10.2243 18.1583 10.7996 17.8346 11.1296L15.313 13.7001L15.9081 17.3314C15.9845 17.7978 15.5168 18.1534 15.1167 17.9331L12 16.2177L8.88328 17.9331C8.48316 18.1534 8.01545 17.7978 8.09187 17.3314L8.68695 13.7001L6.16545 11.1296C5.8417 10.7996 6.01993 10.2243 6.46711 10.1559L9.95242 9.62272Z" stroke="black" stroke-width="1.5" stroke-linecap="round" stroke-linejoin="round"/>
<path d="M22 12L23 12" stroke="black" stroke-width="1.5" stroke-linecap="round" stroke-linejoin="round"/>
<path d="M12 2V1" stroke="black" stroke-width="1.5" stroke-linecap="round" stroke-linejoin="round"/>
<path d="M12 23V22" stroke="black" stroke-width="1.5" stroke-linecap="round" stroke-linejoin="round"/>
<path d="M20 20L19 19" stroke="black" stroke-width="1.5" stroke-linecap="round" stroke-linejoin="round"/>
<path d="M20 4L19 5" stroke="black" stroke-width="1.5" stroke-linecap="round" stroke-linejoin="round"/>
<path d="M4 20L5 19" stroke="black" stroke-width="1.5" stroke-linecap="round" stroke-linejoin="round"/>
<path d="M4 4L5 5" stroke="black" stroke-width="1.5" stroke-linecap="round" stroke-linejoin="round"/>
<path d="M1 12L2 12" stroke="black" stroke-width="1.5" stroke-linecap="round" stroke-linejoin="round"/>
</g>
<defs>
<clipPath id="clip0_851_20375">
<rect width="24" height="24" fill="white"/>
</clipPath>
</defs>
</svg>

<svg xmlns="http://www.w3.org/2000/svg" width="24" height="24" fill="none" viewBox="0 0 24 24">
  <g clip-path="url(#a)">
    <path stroke="#131927" stroke-linecap="round" stroke-linejoin="round" stroke-width="1.5" d="m9.952 9.623 1.559-3.305a.535.535 0 0 1 .978 0l1.559 3.305 3.485.533c.447.068.625.644.302.974l-2.522 2.57.595 3.631c.077.467-.391.822-.791.602L12 16.218l-3.117 1.715c-.4.22-.868-.135-.791-.602l.595-3.63-2.522-2.571c-.323-.33-.145-.906.302-.974l3.485-.533ZM22 12h1M12 2V1m0 22v-1m8-2-1-1m1-15-1 1M4 20l1-1M4 4l1 1m-4 7h1"/>
  </g>
  <defs>
    <clipPath id="a">
      <path fill="#fff" d="M0 0h24v24H0z"/>
    </clipPath>
  </defs>
</svg>
